X: 031233
T: Con Thadhgo's
S: "Johnny O'Leary of Sliabh Luachra" (#158)
Z: B.Black
L: 1/8
M: 2/4
Q: 280
R: polka
K: D
AD FA|dc AB|=c2 cc/A/|EF GF/G/|
AD FA|dc AB|=c>B cE|ED D2 :|
ff ed|cA Ae|fd ed|ea a>g|
fd ed|cA AB|=c>B cE|ED D2 :|
